X:2
T:Octatonic Major intervals
M:none
L:1/1
Q:1/1=80
%%MIDI program 71 % Clarinet
K:Amin
A,B,CD _EF_G_A =A|
w:
[A,_E][A,=F][A,_G][A,_A]|[B,_E][B,=F][B,_G][B,_A]|[=C_E][=C=F][=C_G][=C_A]|[D_E][D=F][D_G][D_A]|
w:TT    m6    M6    M7  |  M3    TT    P5    M6  |  m3    P4    TT     m6 | m2   m3   M3   TT  |
A,B,CD _EF_G_A =A|
[K:Amin]A,B,CD|[K:Ebmin]EFGA|=A|
[K:Amin]A,B,CD|[K:Emin]EFGA|=A|
